src/assets/rain.svg

<?xml version="1.0" encoding="UTF-8" standalone="no"?>
<svg
   xmlns:dc="http://purl.org/dc/elements/1.1/"
   xmlns:cc="http://creativecommons.org/ns#"
   xmlns:rdf="http://www.w3.org/1999/02/22-rdf-syntax-ns#"
   xmlns:svg="http://www.w3.org/2000/svg"
   xmlns="http://www.w3.org/2000/svg"
   xmlns:sodipodi="http://sodipodi.sourceforge.net/DTD/sodipodi-0.dtd"
   xmlns:inkscape="http://www.inkscape.org/namespaces/inkscape"
   width="96"
   height="96"
   viewBox="0 0 96 96"
   version="1.1"
   id="svg27"
   sodipodi:docname="rain.svg"
   inkscape:version="0.92.4 (5da689c313, 2019-01-14)"
   style="fill:none">
  <metadata
     id="metadata31">
    <rdf:RDF>
      <cc:Work
         rdf:about="">
        <dc:format>image/svg+xml</dc:format>
        <dc:type
           rdf:resource="http://purl.org/dc/dcmitype/StillImage" />
        <dc:title />
      </cc:Work>
    </rdf:RDF>
  </metadata>
  <sodipodi:namedview
     pagecolor="#ffffff"
     bordercolor="#666666"
     borderopacity="1"
     objecttolerance="10"
     gridtolerance="10"
     guidetolerance="10"
     inkscape:pageopacity="0"
     inkscape:pageshadow="2"
     inkscape:window-width="1920"
     inkscape:window-height="1057"
     id="namedview29"
     showgrid="false"
     inkscape:zoom="4.6354778"
     inkscape:cx="-17.922931"
     inkscape:cy="26.546093"
     inkscape:window-x="-8"
     inkscape:window-y="1072"
     inkscape:window-maximized="1"
     inkscape:current-layer="svg27" />
  <g
     clip-path="url(#clip1)"
     id="g8"
     transform="matrix(1.9367993,0,0,2.3611111,1.963929,4.9596302)">
    <path
       d="M 9.83184,15.5626 C 9.08491,14.5049 8.31333,13.4117 7.69059,12.2383 c -0.16436,-0.3093 -0.62275,-0.3093 -0.78619,0 -0.62366,1.1734 -1.39524,2.2666 -2.14217,3.3243 -1.51394,2.1449 -2.94387,4.1712 -2.94387,6.5675 0,3.3558 2.45719,6.0848 5.47868,6.0848 3.02146,0 5.47866,-2.729 5.47866,-6.0848 0,-2.3963 -1.4299,-4.4226 -2.94386,-6.5675 z"
       id="path6"
       inkscape:connector-curvature="0"
       style="fill:#2196f3" />
  </g>
  <g
     clip-path="url(#clip2)"
     id="g12"
     transform="matrix(1.9367993,0,0,2.3611111,1.963929,4.9596302)">
    <path
       d="m 27.9007,23.3477 c -0.7469,-1.0578 -1.5185,-2.151 -2.1413,-3.3243 -0.1643,-0.3093 -0.6227,-0.3093 -0.7862,0 -0.6236,1.1733 -1.3952,2.2665 -2.1421,3.3243 -1.514,2.1449 -2.9439,4.1711 -2.9439,6.5675 0,3.3557 2.4572,6.0848 5.4787,6.0848 3.0215,0 5.4787,-2.7291 5.4787,-6.0848 0,-2.3964 -1.43,-4.4226 -2.9439,-6.5675 z"
       id="path10"
       inkscape:connector-curvature="0"
       style="fill:#2196f3" />
  </g>
  <path
     d="m 84.783985,30.230601 c -1.446597,-2.497371 -2.941031,-5.078608 -4.147269,-7.849017 -0.318216,-0.730315 -1.206045,-0.730315 -1.522712,0 -1.207788,2.770409 -2.702222,5.351646 -4.148817,7.849017 -2.932314,5.064348 -5.701745,9.84843 -5.701745,15.506598 0,7.923417 4.759104,14.366888 10.611143,14.366888 5.852039,0 10.611142,-6.443471 10.611142,-14.366888 0,-5.658168 -2.769622,-10.44225 -5.701742,-15.506598 z"
     id="path14"
     inkscape:connector-curvature="0"
     style="fill:#2196f3;stroke-width:2.13845706" />
  <defs
     id="defs25">
    <clipPath
       id="clip0">
      <rect
         x="14.594"
         width="14.5941"
         height="16.208599"
         id="rect16"
         y="0"
         style="fill:#ffffff" />
    </clipPath>
    <clipPath
       id="clip1">
      <rect
         y="12.0063"
         width="14.5941"
         height="16.208599"
         id="rect19"
         x="0"
         style="fill:#ffffff" />
    </clipPath>
    <clipPath
       id="clip2">
      <rect
         x="18.0688"
         y="19.791401"
         width="14.5941"
         height="16.208599"
         id="rect22"
         style="fill:#ffffff" />
    </clipPath>
    <clipPath
       id="clip1-0">
      <rect
         y="12.0063"
         width="14.5941"
         height="16.208599"
         id="rect19-0"
         x="0"
         style="fill:#ffffff" />
    </clipPath>
  </defs>
  <g
     style="fill:none"
     clip-path="url(#clip1-0)"
     id="g8-7"
     transform="matrix(1.9367993,0,0,2.3611111,30.452415,-23.421767)">
    <path
       d="M 9.83184,15.5626 C 9.08491,14.5049 8.31333,13.4117 7.69059,12.2383 c -0.16436,-0.3093 -0.62275,-0.3093 -0.78619,0 -0.62366,1.1734 -1.39524,2.2666 -2.14217,3.3243 -1.51394,2.1449 -2.94387,4.1712 -2.94387,6.5675 0,3.3558 2.45719,6.0848 5.47868,6.0848 3.02146,0 5.47866,-2.729 5.47866,-6.0848 0,-2.3963 -1.4299,-4.4226 -2.94386,-6.5675 z"
       id="path6-0"
       inkscape:connector-curvature="0"
       style="fill:#2196f3" />
  </g>
</svg>

<svg width="47" height="36" viewBox="0 0 47 36" fill="none" xmlns="http://www.w3.org/2000/svg">
<g clip-path="url(#clip0)">
<path d="M24.4258 3.5563C23.6789 2.49856 22.9073 1.40533 22.2846 0.231982C22.1202 -0.0773273 21.6618 -0.0773273 21.4984 0.231982C20.8747 1.40533 20.1032 2.49856 19.3562 3.5563C17.8423 5.70118 16.4124 7.72741 16.4124 10.1238C16.4124 13.4795 18.8695 16.2086 21.891 16.2086C24.9125 16.2086 27.3697 13.4795 27.3697 10.1238C27.3697 7.72741 25.9398 5.70118 24.4258 3.5563Z" fill="#2196F3"/>
</g>
<g clip-path="url(#clip1)">
<path d="M9.83184 15.5626C9.08491 14.5049 8.31333 13.4117 7.69059 12.2383C7.52623 11.929 7.06784 11.929 6.9044 12.2383C6.28074 13.4117 5.50916 14.5049 4.76223 15.5626C3.24829 17.7075 1.81836 19.7338 1.81836 22.1301C1.81836 25.4859 4.27555 28.2149 7.29704 28.2149C10.3185 28.2149 12.7757 25.4859 12.7757 22.1301C12.7757 19.7338 11.3458 17.7075 9.83184 15.5626Z" fill="#2196F3"/>
</g>
<g clip-path="url(#clip2)">
<path d="M27.9007 23.3477C27.1538 22.2899 26.3822 21.1967 25.7594 20.0234C25.5951 19.7141 25.1367 19.7141 24.9732 20.0234C24.3496 21.1967 23.578 22.2899 22.8311 23.3477C21.3171 25.4926 19.8872 27.5188 19.8872 29.9152C19.8872 33.2709 22.3444 36 25.3659 36C28.3874 36 30.8446 33.2709 30.8446 29.9152C30.8446 27.5188 29.4146 25.4926 27.9007 23.3477Z" fill="#2196F3"/>
</g>
<path d="M42.7613 10.703C42.0144 9.64529 41.2428 8.55206 40.62 7.37871C40.4557 7.0694 39.9973 7.0694 39.8338 7.37871C39.2102 8.55206 38.4386 9.64529 37.6917 10.703C36.1777 12.8479 34.7478 14.8741 34.7478 17.2705C34.7478 20.6263 37.205 23.3553 40.2265 23.3553C43.248 23.3553 45.7052 20.6263 45.7052 17.2705C45.7052 14.8741 44.2752 12.8479 42.7613 10.703Z" fill="#2196F3"/>
<defs>
<clipPath id="clip0">
<rect x="14.594" width="14.5941" height="16.2086" fill="white"/>
</clipPath>
<clipPath id="clip1">
<rect y="12.0063" width="14.5941" height="16.2086" fill="white"/>
</clipPath>
<clipPath id="clip2">
<rect x="18.0688" y="19.7914" width="14.5941" height="16.2086" fill="white"/>
</clipPath>
</defs>
</svg>
